X:1
T:Title
%%score 1 { 2 | ( 3 4 ) }
L:1/8
M:6/8
K:Ab
V:1 treble nm="Choir Aahs"
V:2 treble nm="Grand Piano"
V:3 bass 
V:4 bass 
V:1
 z3 z2[Q:1/4=75] E/E/ | e>dc BcB | B3 A2 A/A/ | A2 G/G/ A2 G | G3 F2 F/F/ | F2 =E/F/ AGF | %6
 E3 A2 c/c/ | B2 B/B/ =dcd |[M:15/16] e3/2-e3/2-e3/2- e3 |[M:3/4] z6 | z6 | z6 | z6 | z6 | z6 | %15
 z6 | z6 |] %17
V:2
 z3 z2 E/E/ | [CE]>DC [B,D]ED | [B,D]3 .C3 | C,EE C,EE | C,EE F,,[K:treble]FF | %5
 D,[K:treble]FF[K:bass] D,[K:treble]FF | A,,EE A,,[K:treble]AA | %7
 B,,[K:treble]GG[K:bass] B,,,[K:treble]AA |[M:15/16] [B,EG]->[B,EG]AB3/2- B3 |[M:3/4] E>F GG FE | %10
 [CE][EA] B c3 | c>c cc BA | B>B c B3 | [Ec]>[Ec] [Ec][Fd] [Ec]2 | e>e ef e2 | %15
 [Ec]>[Ec] [Ec][Ec] [DB][CA] | [EB]2 [DB] [CA]3 |] %17
V:3
 z3 z2 E,/E,/ | z z/ B,/A, z CB, | E,,F,,G,, .[A,,A,]3 | z[K:treble] [B,C][B,C] z [B,C][B,C] | %4
 z [B,C][B,C] z [A,C][A,C] | z [A,D][A,D] z [A,D][A,D] | z [A,C][A,C] z [CE][CE] | %7
 z[K:bass] [B,E][B,E] z [B,=D][B,D] |[M:15/16] z3/2 z/ [CE][DEG]3/2- [DEG]3 | %9
[M:3/4] [E,G,D]>[E,A,D] [E,B,D][E,B,D] [E,A,D][E,G,D] | [A,,A,][C,A,] [E,G,E] [A,E]3 | %11
 [A,E]>[A,E] [A,E][A,E] [A,D][A,C] | [E,G,E]>[E,G,E] [E,A,E] [E,G,E]3 | %13
 [A,,A,]>[A,,A,] [A,,A,][A,,A,] [A,,A,]2 | [A,CA]>[A,CA] [A,CA][A,DA] [A,CA]2 | %15
 [A,,A,]>[A,,A,] [A,,A,][A,,A,] [A,,A,][A,,A,] | [E,G,]2 [E,G,] [A,,A,]3 |] %17
V:4
 x6 | .A,,3 .E,,3 | x6 | x[K:treble] x5 | x6 | x6 | x6 | x[K:bass] x5 | %8
[M:15/16] E,,3/2-E,,3/2-E,,3/2- E,,3 |[M:3/4] x6 | x6 | x6 | x6 | x6 | x6 | x6 | x6 |] %17

